frontend/public/svg/interface/music.svg

<svg width="130" height="149" viewBox="0 0 130 149" fill="none" xmlns="http://www.w3.org/2000/svg">
<g clip-path="url(#clip0)">
<path d="M27.6603 32.7641C27.6283 32.8322 27.6076 32.9051 27.5993 32.9798C27.5773 33.18 27.5482 33.3977 27.5171 33.6277C27.4219 34.2423 27.363 34.8619 27.3408 35.4835C27.1364 46.5173 26.9357 57.552 26.7391 68.5872C26.5464 79.2647 26.352 89.9422 26.1558 100.62C26.1318 101.952 26.0559 103.283 25.9833 104.571C25.9587 105.006 25.934 105.436 25.912 105.855C15.0215 110.146 6.71497 118.258 2.49363 128.739C1.33327 131.62 0.359619 134.759 1.08565 138.186C1.47251 140.041 2.25085 141.793 3.36865 143.324C4.48647 144.855 5.91806 146.131 7.56804 147.066C9.7705 148.326 12.2659 148.984 14.8037 148.975C16.4156 148.974 18.0171 148.717 19.5489 148.216C24.506 146.596 28.3286 143.309 31.236 138.16C34.2104 132.807 35.7888 126.792 35.8256 120.669C35.9293 114.843 36.047 109.017 36.1788 103.191C36.4297 91.4924 36.689 79.3955 36.7622 67.495C36.7959 62.1785 36.5114 56.7823 36.2372 51.5634C36.0758 48.5076 35.9131 45.348 35.8094 42.2436C35.7788 41.6361 35.7162 41.0308 35.622 40.4298C35.4158 38.9483 35.2207 37.5451 35.9733 36.0985C61.6527 28.8642 87.9672 19.9571 116.378 8.88123C116.439 10.8539 116.363 12.6977 116.29 14.4889C116.249 15.4931 116.209 16.4814 116.193 17.4687C116.137 20.8996 116.077 24.33 116.011 27.7596C115.824 37.8929 115.632 48.3702 115.643 58.6778C115.649 64.5491 115.891 70.5119 116.125 76.2789C116.255 79.4454 116.385 82.7195 116.479 85.9392C116.492 87.1066 116.444 88.2747 116.334 89.4375C116.3 89.891 116.266 90.3445 116.238 90.7979C115.69 91.1432 115.153 91.482 114.627 91.815C113.285 92.6604 112.017 93.4605 110.758 94.2962C104.406 98.59 99.091 104.245 95.2003 110.85C91.0975 117.647 90.883 124.459 94.563 131.097C98.5633 138.314 106.038 140.884 113.601 137.64C117.187 136.084 120.292 133.6 122.596 130.444C125.708 126.273 127.594 121.293 128.526 114.771C129.758 106.166 129.531 97.4647 129.149 90.0879C128.955 86.3487 128.755 82.6088 128.546 78.8689C128.082 70.3649 127.603 61.5715 127.255 52.921C126.859 43.0605 126.564 33.033 126.279 23.3298C126.146 18.7989 126.009 14.268 125.869 9.73753L125.842 8.7917C125.81 7.56083 125.777 6.29457 125.643 5.04297C125.408 2.82417 124.212 1.23169 122.361 0.675205C122.247 0.640618 122.127 0.637172 122.012 0.665397C120.811 0.958214 119.704 1.22142 118.663 1.46759C116.537 1.9716 114.702 2.40623 112.866 2.91413C107.517 4.39441 102.09 5.93177 96.841 7.41915L90.4791 9.21875C72.0295 14.4247 53.6969 20.279 35.9902 26.618C32.9408 27.7109 29.4864 28.9484 27.6603 32.7641ZM26.2957 113.964C26.5559 114.56 26.7306 115.189 26.8144 115.834C27.1917 121.908 25.6457 127.948 22.396 133.096C21.2238 135.088 19.4474 136.654 17.3241 137.57C15.4689 138.354 14.0038 138.118 12.7255 136.822C11.9146 134.568 12.7254 132.546 13.7134 130.506C15.7994 126.179 21.7017 118.364 26.2484 113.837C26.264 113.88 26.2795 113.922 26.2957 113.964ZM110.094 125.464C108.949 126.417 107.815 126.796 106.815 126.566C105.761 126.319 104.856 125.409 104.202 123.935C103.304 122.065 103.183 119.914 103.867 117.955L103.991 117.589C104.203 116.899 104.471 116.227 104.794 115.581C107.589 110.394 111.592 106.095 116.227 101.117L116.297 101.04C116.925 109.157 116.089 115.404 113.628 121.136C112.787 122.823 111.58 124.302 110.094 125.464Z" fill="black"/>
</g>
<defs>
<clipPath id="clip0">
<rect width="129" height="149" fill="white" transform="translate(0.777344)"/>
</clipPath>
</defs>
</svg>

<svg xmlns="http://www.w3.org/2000/svg" width="130" height="149" fill="none" viewBox="0 0 130 149"><g clip-path="url(#a)"><path fill="#000" d="M27.66 32.764a.7.7 0 0 0-.06.216q-.036.302-.083.648a16 16 0 0 0-.176 1.855q-.307 16.551-.602 33.104-.29 16.016-.583 32.033c-.024 1.332-.1 2.663-.173 3.951l-.071 1.284c-10.89 4.291-19.197 12.403-23.418 22.884-1.16 2.881-2.134 6.02-1.408 9.447a13.33 13.33 0 0 0 6.482 8.88 14.47 14.47 0 0 0 7.236 1.909 15.3 15.3 0 0 0 4.745-.759c4.957-1.62 8.78-4.907 11.687-10.056a36.46 36.46 0 0 0 4.59-17.491q.155-8.739.353-17.478c.25-11.699.51-23.796.583-35.696.034-5.317-.25-10.713-.525-15.932a485 485 0 0 1-.428-9.32 17 17 0 0 0-.187-1.813c-.206-1.482-.401-2.885.351-4.331 25.68-7.235 51.994-16.142 80.405-27.218.061 1.973-.015 3.817-.088 5.608a121 121 0 0 0-.097 2.98q-.084 5.146-.182 10.29c-.187 10.134-.379 20.611-.368 30.919.006 5.871.248 11.834.482 17.6.13 3.167.26 6.441.354 9.661a33 33 0 0 1-.145 3.499q-.053.68-.096 1.36l-1.611 1.017c-1.342.845-2.61 1.645-3.869 2.481A51.6 51.6 0 0 0 95.2 110.85c-4.103 6.797-4.317 13.609-.637 20.247 4 7.217 11.475 9.787 19.038 6.543a21.96 21.96 0 0 0 8.995-7.196c3.112-4.171 4.998-9.151 5.93-15.673 1.232-8.605 1.005-17.306.623-24.683q-.29-5.61-.603-11.22c-.464-8.503-.943-17.296-1.291-25.947-.396-9.86-.691-19.888-.976-29.591q-.2-6.797-.41-13.592l-.027-.946c-.032-1.231-.065-2.497-.199-3.749-.235-2.219-1.431-3.811-3.282-4.368a.66.66 0 0 0-.349-.01c-1.201.293-2.308.556-3.349.803-2.126.504-3.961.938-5.797 1.446A2725 2725 0 0 0 96.841 7.42l-6.362 1.8A836 836 0 0 0 35.99 26.618c-3.05 1.093-6.504 2.33-8.33 6.146m-1.364 81.2c.26.596.435 1.225.518 1.87a28.97 28.97 0 0 1-4.418 17.262 10.9 10.9 0 0 1-5.072 4.474c-1.855.784-3.32.548-4.599-.748-.81-2.254 0-4.276.988-6.316 2.086-4.327 7.989-12.142 12.535-16.669q.023.064.048.127m83.798 11.5c-1.145.953-2.279 1.332-3.279 1.102-1.054-.247-1.959-1.157-2.613-2.631a7.84 7.84 0 0 1-.335-5.98l.124-.366q.318-1.037.803-2.008c2.795-5.187 6.798-9.486 11.433-14.464l.07-.077c.628 8.117-.208 14.364-2.669 20.096a12.7 12.7 0 0 1-3.534 4.328"/></g><defs><clipPath id="a"><path fill="#fff" d="M.777 0h129v149h-129z"/></clipPath></defs></svg>
